icons/mimetypes/64/application-vnd.oasis.opendocument.chart.svg

<?xml version="1.0" encoding="UTF-8" standalone="no"?>
<svg
   xmlns:dc="http://purl.org/dc/elements/1.1/"
   xmlns:cc="http://creativecommons.org/ns#"
   xmlns:rdf="http://www.w3.org/1999/02/22-rdf-syntax-ns#"
   xmlns:svg="http://www.w3.org/2000/svg"
   xmlns="http://www.w3.org/2000/svg"
   xmlns:xlink="http://www.w3.org/1999/xlink"
   xmlns:sodipodi="http://sodipodi.sourceforge.net/DTD/sodipodi-0.dtd"
   xmlns:inkscape="http://www.inkscape.org/namespaces/inkscape"
   width="64"
   version="1.1"
   viewBox="0 0 64 64"
   height="64"
   id="svg2"
   inkscape:version="0.91 r13725"
   sodipodi:docname="application-vnd.oasis.opendocument.chart.svg">
  <sodipodi:namedview
     pagecolor="#ffffff"
     bordercolor="#666666"
     borderopacity="1"
     objecttolerance="10"
     gridtolerance="10"
     guidetolerance="10"
     inkscape:pageopacity="0"
     inkscape:pageshadow="2"
     inkscape:window-width="1920"
     inkscape:window-height="1013"
     id="namedview25"
     showgrid="false"
     inkscape:zoom="3.6875"
     inkscape:cx="32"
     inkscape:cy="29.830508"
     inkscape:window-x="0"
     inkscape:window-y="0"
     inkscape:window-maximized="1"
     inkscape:current-layer="svg2" />
  <defs
     id="defs4">
    <linearGradient
       id="linearGradient4351">
      <stop
         style="stop-color:#c8e3fe"
         id="stop4353" />
      <stop
         offset="1"
         style="stop-color:#ffffff"
         id="stop4355" />
    </linearGradient>
    <linearGradient
       inkscape:collect="always"
       id="linearGradient4300">
      <stop
         style="stop-color:#22a7f0"
         id="stop4302" />
      <stop
         offset="1"
         style="stop-color:#19b5fe"
         id="stop4304" />
    </linearGradient>
    <linearGradient
       inkscape:collect="always"
       xlink:href="#linearGradient4300"
       id="linearGradient4306-3"
       y1="61"
       y2="3"
       x2="0"
       gradientUnits="userSpaceOnUse"
       gradientTransform="matrix(1,0,0,-1,0,64)" />
  </defs>
  <metadata
     id="metadata84">
    <rdf:RDF>
      <cc:Work
         rdf:about="">
        <dc:format>image/svg+xml</dc:format>
        <dc:type
           rdf:resource="http://purl.org/dc/dcmitype/StillImage" />
      </cc:Work>
    </rdf:RDF>
  </metadata>
  <path
     inkscape:connector-curvature="0"
     style="fill:url(#linearGradient4306-3);fill-opacity:1.0"
     d="m 10,3 0,58 30,0 14,0 L 54,47 54,18.414062 38.585938,3 10,3 Z"
     id="rect3500-6" />
  <rect
     width="44"
     x="10"
     y="60"
     height="1"
     style="fill:#2e3132;fill-opacity:0.29411801"
     id="rect4169-7" />
  <path
     inkscape:connector-curvature="0"
     style="fill:#ffffff;fill-opacity:0.40983599"
     d="m 10,3 0,1 29.585938,0 -1,-1 L 10,3 Z"
     id="rect4236-5" />
  <path
     inkscape:connector-curvature="0"
     style="fill:#2192f1;fill-opacity:1;fill-rule:evenodd"
     id="path4314-3"
     d="M 40,3 54,17 54,3 Z" />
  <rect
     width="0"
     x="-53.833336"
     y="22.833298"
     height="20.166639"
     style="fill:#5e6b78"
     id="rect4035" />
  <rect
     width="0"
     x="137.64157"
     y="23.999973"
     height="21.99995"
     style="fill:#ffffff"
     id="rect4035-75" />
  <rect
     width="0"
     x="137.00003"
     y="21.999975"
     height="21.99995"
     style="fill:#ffffff"
     id="rect4035-4" />
  <rect
     width="0"
     x="133.92828"
     y="21.772314"
     height="22.227785"
     style="fill:#fbd2bf"
     id="rect4035-3" />
  <rect
     width="0"
     x="137.00003"
     y="21.999975"
     height="21.99995"
     style="fill:#fbd2bf"
     id="rect4035-1" />
  <rect
     width="0"
     x="177"
     y="21.999975"
     height="21.99995"
     style="fill:#fbfbfb"
     id="rect4035-2" />
  <rect
     width="0"
     x="137.00003"
     y="21.999975"
     height="21.99995"
     style="fill:#fbfbfb"
     id="rect4035-8" />
  <rect
     width="0"
     x="-22.35836"
     y="23.999973"
     height="21.99995"
     style="fill:#ffffff"
     id="rect4035-7" />
  <rect
     width="0"
     x="-22.999901"
     y="21.999975"
     height="21.99995"
     style="fill:#ffffff"
     id="rect4035-4-5" />
  <rect
     width="0"
     x="-26.071617"
     y="21.772314"
     height="22.227785"
     style="fill:#fbd2bf"
     id="rect4035-3-3" />
  <rect
     width="0"
     x="-22.999901"
     y="21.999975"
     height="21.99995"
     style="fill:#fbd2bf"
     id="rect4035-1-5" />
  <rect
     width="0"
     x="57.64159"
     y="-43.999958"
     height="21.99995"
     style="fill:#ffffff"
     id="rect4035-5"
     transform="scale(1,-1)" />
  <rect
     width="0"
     x="57.00005"
     y="-45.999958"
     height="21.99995"
     style="fill:#ffffff"
     id="rect4035-4-6"
     transform="scale(1,-1)" />
  <rect
     width="0"
     x="53.928337"
     y="-46.227619"
     height="22.227785"
     style="fill:#fbd2bf"
     id="rect4035-3-2"
     transform="scale(1,-1)" />
  <rect
     width="0"
     x="57.00005"
     y="-45.999958"
     height="21.99995"
     style="fill:#fbd2bf"
     id="rect4035-1-9"
     transform="scale(1,-1)" />
  <path
     style="fill:#ffffff"
     id="rect4167"
     d="m 39,21.000004 0,20 2,0 0,-20 -2,0 z m -12,8 0,12 2,0 0,-12 -2,0 z m 4,4 0,8 2,0 0,-8 -2,0 z m 4,3 0,5 2,0 0,-5 -2,0 z m -12,2 0,3 2,0 0,-3 -2,0 z m -2,4 0,1 22,0 0,-1 -22,0 z"
     inkscape:connector-curvature="0" />
</svg>

<?xml version="1.0" encoding="UTF-8" standalone="no"?>
<svg width="64" version="1.1" xmlns="http://www.w3.org/2000/svg" viewBox="0 0 64 64" height="64" xmlns:xlink="http://www.w3.org/1999/xlink" xmlns:inkscape="http://www.inkscape.org/namespaces/inkscape">
 <defs id="defs4">
  <linearGradient id="linearGradient4351">
   <stop style="stop-color:#c8e3fe" id="stop4353"/>
   <stop offset="1" style="stop-color:#ffffff" id="stop4355"/>
  </linearGradient>
  <linearGradient inkscape:collect="always" id="linearGradient4300">
   <stop style="stop-color:#22a7f0" id="stop4302"/>
   <stop offset="1" style="stop-color:#19b5fe" id="stop4304"/>
  </linearGradient>
  <linearGradient inkscape:collect="always" xlink:href="#linearGradient4300" id="linearGradient4306" y1="61" y2="3" x2="0" gradientUnits="userSpaceOnUse"/>
  <linearGradient inkscape:collect="always" xlink:href="#linearGradient4410" id="linearGradient4427" y1="31" x1="54" y2="17" x2="40" gradientUnits="userSpaceOnUse" gradientTransform="matrix(1 0 0 -1 -14 78)"/>
  <linearGradient inkscape:collect="always" id="linearGradient4410">
   <stop style="stop-color:#383e51" id="stop4412"/>
   <stop offset="1" style="stop-color:#655c6f;stop-opacity:0" id="stop4414"/>
  </linearGradient>
  <linearGradient inkscape:collect="always" xlink:href="#linearGradient4351" id="linearGradient4357" y1="61" y2="47" x2="0" gradientUnits="userSpaceOnUse"/>
 </defs>
 <metadata id="metadata84"/>
 <path style="fill:url(#linearGradient4306)" id="rect3500" d="M 10 3 L 10 61 L 40 61 L 54 47 L 54 17 L 54 3 L 40 3 L 10 3 z "/>
 <rect width="30" x="10" y="60" height="1" style="fill:#2e3132;fill-opacity:0.294118" id="rect4169"/>
 <rect width="44" x="10" y="3" height="1" style="fill:#ffffff;fill-opacity:0.409836" id="rect4236"/>
 <path inkscape:connector-curvature="0" style="fill:url(#linearGradient4357);fill-rule:evenodd" id="path4314" d="M 54,47 40,61 40,47 Z"/>
 <path inkscape:connector-curvature="0" style="fill:url(#linearGradient4427);opacity:0.2;fill-rule:evenodd" id="path4320" d="M 26,61 40,47 40,61 Z"/>
 <path inkscape:connector-curvature="0" style="fill:none" id="rect4323" d="m -7,21 -12,4 0,13.544922 L -15,37 -15,26 -7,24.285156 -7,40.333984 -19,39 l 12,4 6,-2 0,-18 -6,-2 z"/>
 <path style="fill:#ffffff" id="rect4167" d="M 39 21 L 39 41 L 41 41 L 41 21 L 39 21 z M 27 29 L 27 41 L 29 41 L 29 29 L 27 29 z M 31 33 L 31 41 L 33 41 L 33 33 L 31 33 z M 35 36 L 35 41 L 37 41 L 37 36 L 35 36 z M 23 38 L 23 41 L 25 41 L 25 38 L 23 38 z M 21 42 L 21 43 L 43 43 L 43 42 L 21 42 z " transform="matrix(1 0 0 1 0 0.000004)"/>
</svg>
